app/dist/common/images/jiangsu-lihua-anim.svg

<svg height="18" viewBox="0 0 18 18" width="18" xmlns="http://www.w3.org/2000/svg"><path d="m0 0h18v18h-18z" fill="#f0f3fa"/><g fill="#063d8a"><path d="m14.7 8.5c0-1.38-1-2.71-1.5-3.2.3.12 1.8 1.27 1.8 3.2 0 2.58-1.6 5.5-5.84 5.5a6.03 6.03 0 0 1 -6.16-5.5c0-1.9 2.01-4.5 5.7-4.5 3.7 0 4.3 2.62 4.3 3.56s-1 2.37-2.93 2.37a2.81 2.81 0 0 1 -2.87-2.63c0-1 .87-1.67 1.22-1.67.36 0 .43.13.43.37s-1.05.5-1.05 1.56c0 1.07 1.25 2.04 2.27 2.04 1.65 0 2.18-1.2 2.18-2.04 0-1.77-1.08-3.25-3.55-3.25-3.31 0-5.1 2.86-5.1 4.51 0 1.66 1.6 4.54 5.46 4.54 3.85 0 5.64-3.14 5.64-4.86z"/><path d="m7.11 6c-.22.23-.54.7-.54 1.27 0 .8.56 1.9 1.43 2.6v2.13h-2v-6zm3.89 0h-2v2.97c.24.22.76.52 1.82.53.11.14.05.34 0 .42-.3.29-1.05.7-1.82.23v1.85h2z"/></g></svg>

<!-- by TradingView --><svg width="18" height="18" viewBox="0 0 18 18" xmlns="http://www.w3.org/2000/svg"><path fill="#F0F3FA" d="M0 0h18v18H0z"/><path d="M14.7 8.5c0-1.38-1-2.71-1.5-3.2.3.12 1.8 1.27 1.8 3.2 0 2.58-1.6 5.5-5.84 5.5A6.03 6.03 0 0 1 3 8.5C3 6.6 5.01 4 8.7 4 12.4 4 13 6.62 13 7.56s-1 2.37-2.93 2.37A2.81 2.81 0 0 1 7.2 7.3c0-1 .87-1.67 1.22-1.67.36 0 .43.13.43.37S7.8 6.5 7.8 7.56c0 1.07 1.25 2.04 2.27 2.04 1.65 0 2.18-1.2 2.18-2.04 0-1.77-1.08-3.25-3.55-3.25-3.31 0-5.1 2.86-5.1 4.51 0 1.66 1.6 4.54 5.46 4.54 3.85 0 5.64-3.14 5.64-4.86Z" fill="#063D8A"/><path d="M7.11 6c-.22.23-.54.7-.54 1.27 0 .8.56 1.9 1.43 2.6V12H6V6h1.11ZM11 6H9v2.97c.24.22.76.52 1.82.53.11.14.05.34 0 .42-.3.29-1.05.7-1.82.23V12h2V6Z" fill="#063D8A"/></svg>
